assets/Person wrestling/Flat/person_wrestling_flat.svg

<svg width="32" height="32" viewBox="0 0 32 32" fill="none" xmlns="http://www.w3.org/2000/svg">
<path d="M10.1274 12.5254L8.57739 10.9754L10.4574 9.08545L12.0174 10.6454L10.1274 12.5254ZM21.7574 12.5254L23.3074 10.9754L21.4274 9.08545L19.8674 10.6454L21.7574 12.5254Z" fill="#FCB100"/>
<path d="M12.5975 5.15552H11.3675C10.3275 5.15552 9.47754 6.00552 9.47754 7.04552L9.88754 8.46552L10.2575 9.82552C10.6475 10.8255 11.9975 11.2555 12.8475 11.2555C14.2375 11.2555 14.4575 10.4255 14.4875 9.25552C14.4875 9.20552 14.5175 9.16552 14.5675 9.15552C14.7775 9.10552 14.9975 8.93552 14.9975 8.72552C14.9975 8.61215 14.9157 8.50946 14.8135 8.38134C14.7444 8.29474 14.6661 8.19651 14.5975 8.07552C14.5275 7.94552 14.4875 7.78552 14.4875 7.63552V7.04552C14.4875 6.00552 13.6375 5.15552 12.5975 5.15552ZM19.2875 5.15552H20.5175C21.5575 5.15552 22.4075 6.00552 22.4075 7.04552L21.9975 8.46552L21.6274 9.82552C21.2374 10.8255 19.8875 11.2555 19.0375 11.2555C17.6475 11.2555 17.4275 10.4255 17.3975 9.25552C17.3975 9.20552 17.3675 9.16552 17.3175 9.15552C17.1075 9.10552 16.8875 8.93552 16.8875 8.72552C16.8875 8.61215 16.9693 8.50946 17.0715 8.38134C17.1406 8.29474 17.2189 8.19651 17.2875 8.07552C17.3575 7.94552 17.3975 7.78552 17.3975 7.63552V7.04552C17.3975 6.00552 18.2475 5.15552 19.2875 5.15552Z" fill="#FFC83D"/>
<path d="M22.7973 8.69554C22.6973 8.77554 22.6873 8.94554 22.7973 9.02554C23.1373 9.29554 22.9573 9.79554 22.5273 9.94554C22.1773 10.0655 21.3673 9.95554 21.3673 9.11554V8.51554C21.4473 8.39554 21.4973 8.24554 21.4973 8.08554C21.4973 7.70554 21.2173 7.39554 20.8473 7.33554C20.7773 7.30554 20.7273 7.32554 20.7273 7.32554C20.7273 7.32554 20.7473 6.52554 19.1473 6.52554C17.7873 6.52554 17.0773 6.20554 17.0773 5.17554C17.0773 4.37554 17.6773 3.94554 18.3973 4.00554C18.8353 4.04272 19.082 4.12941 19.285 4.20072C19.5733 4.302 19.7733 4.37225 20.3073 4.22554C21.5673 3.87554 23.1173 4.46554 23.4073 6.46554C23.5973 7.78554 23.1573 8.41554 22.7973 8.69554ZM9.08737 8.69554C9.18737 8.77554 9.19737 8.94554 9.08737 9.02554C8.74737 9.29554 8.92737 9.79554 9.35737 9.95554C9.70737 10.0755 10.5174 9.96554 10.5174 9.12554V8.52554C10.4374 8.40554 10.3874 8.25554 10.3874 8.09554C10.3874 7.70554 10.6674 7.39554 11.0374 7.33554C11.1074 7.31554 11.1574 7.32554 11.1574 7.32554C11.1574 7.32554 11.1374 6.52554 12.7374 6.52554C14.0974 6.52554 14.8074 6.20554 14.8074 5.17554C14.8074 4.37554 14.2074 3.94554 13.4874 4.00554C13.0494 4.04272 12.8027 4.12941 12.5997 4.20072C12.3114 4.302 12.1114 4.37225 11.5774 4.22554C10.3174 3.87554 8.76737 4.46554 8.47737 6.46554C8.28737 7.78554 8.72737 8.41554 9.08737 8.69554Z" fill="#F1A11E"/>
<path d="M12.1797 4.37145C12.2161 4.2543 12.1507 4.12979 12.0336 4.09334C11.9164 4.05689 11.7919 4.12232 11.7554 4.23947L11.0554 6.48947C10.5004 8.27008 11.0031 10.2184 12.3649 11.5068C12.454 11.5912 12.5946 11.5873 12.6789 11.4981C12.7632 11.409 12.7594 11.2684 12.6702 11.1841C11.4321 10.0126 10.9748 8.24081 11.4797 6.62145L12.1797 4.37145ZM20.1194 4.23888C20.0826 4.12183 19.9579 4.05675 19.8408 4.09352C19.7238 4.1303 19.6587 4.25499 19.6955 4.37204L20.4054 6.63182C20.9101 8.25111 20.4528 10.0226 19.2147 11.1941C19.1256 11.2784 19.1217 11.419 19.206 11.5081C19.2904 11.5973 19.431 11.6012 19.5201 11.5168C20.8819 10.2283 21.3845 8.27953 20.8294 6.49888L20.1194 4.23888Z" fill="#321B41"/>
<path d="M12.1374 8.08564C12.1374 8.80361 11.5553 9.38564 10.8374 9.38564C10.1194 9.38564 9.53735 8.80361 9.53735 8.08564C9.53735 7.36767 10.1194 6.78564 10.8374 6.78564C11.5553 6.78564 12.1374 7.36767 12.1374 8.08564ZM22.3476 8.08564C22.3476 8.80361 21.7655 9.38564 21.0476 9.38564C20.3296 9.38564 19.7476 8.80361 19.7476 8.08564C19.7476 7.36767 20.3296 6.78564 21.0476 6.78564C21.7655 6.78564 22.3476 7.36767 22.3476 8.08564Z" fill="#321B41"/>
<path d="M14.1375 7.95552C14.1375 8.04552 14.0775 8.11552 14.0075 8.11552H13.1075C13.0375 8.11552 12.9775 8.04552 12.9775 7.95552V7.94552C12.9775 7.60552 13.2775 7.40552 13.5575 7.40552C13.8375 7.40552 14.1375 7.59552 14.1375 7.94552V7.95552Z" fill="white"/>
<path d="M17.7476 7.95552C17.7476 8.04552 17.8076 8.11552 17.8776 8.11552H18.7776C18.8476 8.11552 18.9076 8.04552 18.9076 7.95552V7.94552C18.9076 7.60552 18.6076 7.40552 18.3276 7.40552C18.0476 7.40552 17.7476 7.59552 17.7476 7.94552V7.95552Z" fill="white"/>
<path d="M14.1375 7.95561C14.1375 8.01561 14.1375 8.06561 14.1175 8.11561H13.4375C13.4275 8.06561 13.4175 8.01561 13.4175 7.95561C13.4175 7.69561 13.5775 7.49561 13.7775 7.49561C13.9775 7.49561 14.1375 7.70561 14.1375 7.95561ZM17.7476 7.95561C17.7476 8.01561 17.7476 8.06561 17.7676 8.11561H18.4476C18.4576 8.06561 18.4676 8.01561 18.4676 7.95561C18.4676 7.69561 18.3076 7.49561 18.1076 7.49561C17.9076 7.49561 17.7476 7.70561 17.7476 7.95561Z" fill="#7D4533"/>
<path d="M14.0475 7.95556C14.0475 8.01556 14.0275 8.07556 13.9975 8.11556H13.6975C13.6675 8.07556 13.6475 8.01556 13.6475 7.95556C13.6475 7.81556 13.7375 7.69556 13.8475 7.69556C13.9575 7.69556 14.0475 7.81556 14.0475 7.95556ZM17.8374 7.95556C17.8374 8.01556 17.8574 8.07556 17.8874 8.11556H18.1874C18.2174 8.07556 18.2374 8.01556 18.2374 7.95556C18.2374 7.81556 18.1474 7.69556 18.0374 7.69556C17.9274 7.69556 17.8374 7.81556 17.8374 7.95556Z" fill="black"/>
<path d="M14.0375 7.77555C14.0375 7.82525 14.0061 7.86555 13.9675 7.86555C13.9288 7.86555 13.8975 7.82525 13.8975 7.77555C13.8975 7.72584 13.9288 7.68555 13.9675 7.68555C14.0061 7.68555 14.0375 7.72584 14.0375 7.77555ZM17.9874 7.77555C17.9874 7.82525 17.9561 7.86555 17.9174 7.86555C17.8788 7.86555 17.8474 7.82525 17.8474 7.77555C17.8474 7.72584 17.8788 7.68555 17.9174 7.68555C17.9561 7.68555 17.9874 7.72584 17.9874 7.77555Z" fill="white"/>
<path d="M27.1274 16.2756C27.2374 16.3156 27.3574 16.3356 27.4774 16.3356C27.9574 16.3356 28.3974 16.0356 28.5374 15.5456L29.4474 12.7856C29.6374 12.1956 29.5374 11.5456 29.1774 11.0456C28.8174 10.5456 28.2274 10.2456 27.6074 10.2456H23.4474C22.8274 10.2456 22.3274 10.7456 22.3274 11.3756C22.3274 12.0056 22.8274 12.5056 23.4474 12.5056H27.1774L26.4074 14.8556C26.2174 15.4456 26.5374 16.0856 27.1274 16.2756ZM18.3174 12.7456L17.6374 12.8556C17.5973 12.8622 17.5517 12.8611 17.5057 12.8537L17.6475 12.6755H18.1675C18.3775 12.6755 18.5475 12.5055 18.5475 12.2955C18.5475 12.1124 18.4183 11.9598 18.246 11.9236C18.3811 11.8668 18.48 11.7397 18.4874 11.5856C18.4974 11.3656 18.3174 11.1956 18.1074 11.1956H17.4774C17.2174 11.1956 16.9774 11.3056 16.8074 11.5056L16.2974 12.2356C16.2916 12.2426 16.2822 12.2555 16.2691 12.2736C16.078 12.5367 15.0988 13.8856 13.0774 13.8856C11.4788 13.8856 10.7034 12.3109 10.5903 12.0812C10.5838 12.0681 10.5795 12.0593 10.5774 12.0556V12.0656L8.53735 12.9756C8.58735 13.0956 9.87735 15.9256 12.9374 16.1356C13.0573 16.1456 13.1773 16.1456 13.2873 16.1456C15.0373 16.1456 16.6974 15.2656 17.7774 13.9056L18.0274 13.6456C18.0774 13.5856 18.1474 13.5456 18.2274 13.5356L18.4274 13.5056C18.6174 13.4756 18.7674 13.3056 18.7574 13.1156C18.7574 12.8756 18.5474 12.7056 18.3174 12.7456Z" fill="#FCB100"/>
<path d="M6.19755 21.0156H3.38755L3.84755 22.4056C3.89755 22.5456 3.89755 22.6856 3.84755 22.8256L2.48755 27.2156H4.51755L6.37755 23.6656C6.59755 22.9856 6.59755 22.2456 6.37755 21.5656L6.19755 21.0156Z" fill="#FFC83D"/>
<path d="M25.7974 21.0156H28.6074L28.1474 22.4056C28.0974 22.5456 28.0974 22.6856 28.1474 22.8256L29.5074 27.2156H27.4774L25.6174 23.6656C25.3974 22.9856 25.3974 22.2456 25.6174 21.5656L25.7974 21.0156Z" fill="#FFC83D"/>
<path d="M9.10757 18.9756L10.7276 20.5656C11.4476 21.2656 11.8576 22.2556 11.8576 23.2556V25.9756H9.74757L9.41757 23.2556C9.35757 22.9456 9.25757 22.6756 9.04757 22.4656L7.25757 20.7856L9.10757 18.9756Z" fill="#FCB100"/>
<path d="M22.8876 18.9756L21.2676 20.5656C20.5476 21.2656 20.1376 22.2556 20.1376 23.2556V25.9756H22.2476L22.5776 23.2556C22.6376 22.9456 22.7376 22.6756 22.9476 22.4656L24.7376 20.7856L22.8876 18.9756Z" fill="#FCB100"/>
<path d="M13.0576 6.90063C12.983 6.90063 12.9226 6.96105 12.9226 7.03558C12.9226 7.11012 12.983 7.17053 13.0576 7.17053H13.8776C13.9521 7.17053 14.0125 7.11012 14.0125 7.03558C14.0125 6.96105 13.9521 6.90063 13.8776 6.90063H13.0576Z" fill="#D37034"/>
<path d="M18.0075 6.90063C17.933 6.90063 17.8726 6.96105 17.8726 7.03558C17.8726 7.11012 17.933 7.17053 18.0075 7.17053H18.8275C18.902 7.17053 18.9625 7.11012 18.9625 7.03558C18.9625 6.96105 18.9011 6.90063 18.8266 6.90063H18.0075Z" fill="#D37034"/>
<path d="M2.55737 26.9456L2.85737 25.9856H5.15737L4.65737 26.9456H2.55737ZM9.79756 26.9856L9.74756 25.9856H11.8676V26.9856H9.79756ZM22.2474 25.9856L22.1974 26.9856H20.1274V25.9856H22.2474ZM29.4374 26.9456L29.1374 25.9856H26.8374L27.3374 26.9456H29.4374Z" fill="#D3D3D3"/>
<path d="M13.2474 9.25928C13.1777 9.25928 13.1211 9.31585 13.1211 9.38563C13.1211 9.45541 13.1777 9.51198 13.2474 9.51198H13.9674C14.0372 9.51198 14.0938 9.45541 14.0938 9.38563C14.0938 9.31585 14.0372 9.25928 13.9674 9.25928H13.2474ZM17.9174 9.25928C17.8476 9.25928 17.791 9.31585 17.791 9.38563C17.791 9.45541 17.8476 9.51198 17.9174 9.51198H18.6274C18.6971 9.51198 18.7537 9.45541 18.7537 9.38563C18.7537 9.31585 18.6971 9.25928 18.6274 9.25928H17.9174Z" fill="#990839"/>
<path d="M4.24736 16.0856C4.76736 15.5556 5.60736 15.5556 6.13736 16.0656L9.32049 19.1795L7.4987 21.0013L4.26736 17.9656C3.73736 17.4556 3.72736 16.6056 4.24736 16.0856ZM24.4988 20.9988L27.7274 17.9656C28.2574 17.4556 28.2674 16.6056 27.7474 16.0856C27.2274 15.5556 26.3874 15.5556 25.8574 16.0656L22.6769 19.1769L24.4988 20.9988Z" fill="#F95725"/>
<path d="M4.65746 26.9456H2.55746L2.01746 28.5856C1.94746 28.7756 2.09746 28.9756 2.29746 28.9756H6.27746C6.51746 28.9756 6.70746 28.7856 6.70746 28.5456C6.70746 28.4056 6.63746 28.2656 6.51746 28.1856L4.65746 26.9456ZM29.4373 26.9456H27.3373L25.4773 28.1856C25.3573 28.2656 25.2873 28.4056 25.2873 28.5456C25.2873 28.7856 25.4773 28.9756 25.7173 28.9756H29.6973C29.8973 28.9756 30.0473 28.7756 29.9773 28.5856L29.4373 26.9456ZM11.8673 26.9856L13.8973 28.0656C14.0573 28.1456 14.1573 28.3156 14.1473 28.4956C14.1473 28.7656 13.9273 28.9856 13.6573 28.9856H10.2973C10.0573 28.9856 9.86731 28.7956 9.86731 28.5556L9.79731 26.9856H11.8673ZM20.1273 26.9856L18.0973 28.0656C17.9373 28.1456 17.8373 28.3156 17.8473 28.4956C17.8473 28.7656 18.0673 28.9856 18.3373 28.9856H21.6973C21.9373 28.9856 22.1273 28.7956 22.1273 28.5556L22.1973 26.9856H20.1273Z" fill="#533566"/>
<path d="M2.37736 17.9456C1.88736 16.5856 2.23736 15.4656 3.15736 14.6156L6.70736 11.0656C7.74736 10.0256 9.43736 10.0256 10.4774 11.0656C11.5174 12.1056 11.5174 13.7956 10.4774 14.8356L7.49736 17.9456C6.92736 18.5356 6.15736 18.7756 5.42736 18.6756L6.27654 21.25H3.46891L2.37736 17.9456ZM28.526 21.25L29.6175 17.9456C30.1075 16.5856 29.7575 15.4656 28.8375 14.6156L25.2875 11.0656C24.2475 10.0256 22.5575 10.0256 21.5175 11.0656C20.4775 12.1056 20.4775 13.7956 21.5175 14.8356L24.4975 17.9456C25.0675 18.5356 25.8375 18.7756 26.5675 18.6756L25.7184 21.25H28.526Z" fill="#FF6723"/>
<path d="M14.8773 19.1356L15.4473 19.4556C15.6273 19.5556 15.7073 19.7756 15.6073 19.9656C15.5673 20.0556 15.4973 20.1156 15.4173 20.1456C15.4773 20.2556 15.4773 20.3856 15.4173 20.5056C15.3473 20.6256 15.2173 20.6956 15.0873 20.6956C15.0473 20.6956 15.0173 20.6956 14.9873 20.6856C14.9773 20.7256 14.9673 20.7656 14.9473 20.8056C14.8773 20.9256 14.7473 20.9956 14.6173 20.9956C14.5673 20.9956 14.5073 20.9856 14.4573 20.9556C14.4573 20.9956 14.4373 21.0356 14.4173 21.0756C14.3473 21.1956 14.2173 21.2656 14.0873 21.2656C14.0273 21.2656 13.9673 21.2456 13.9073 21.2156L13.4573 20.9656L13.3973 20.9356L12.5873 20.5056C12.5373 20.4856 12.4973 20.4656 12.4473 20.4356L12.3973 20.4056C9.83735 18.9956 8.51735 16.8856 7.84735 15.3256C7.42735 15.3156 7.01735 15.1456 6.70735 14.8156L6.67735 14.7856C6.05735 14.1356 6.06735 13.1156 6.70735 12.4756L7.38735 11.7956C7.70735 11.4756 8.14735 11.2856 8.60735 11.2856C9.12735 11.2856 9.59735 11.5256 9.92735 11.9456C10.0973 12.1756 10.2073 12.4456 10.2573 12.7256C10.3173 13.2456 10.1473 13.7356 9.79735 14.1056C9.90735 14.4056 10.0573 14.7456 10.2473 15.1056C11.0473 16.6056 12.3973 17.8856 13.8573 18.6556H13.8873L14.7173 18.4056C14.9173 18.3456 15.1273 18.4656 15.1773 18.6756C15.2273 18.8656 15.0973 19.0656 14.8973 19.1256L14.8773 19.1356Z" fill="#FFC83D"/>
<path d="M24.5776 11.7755L25.3576 12.5755C25.9976 13.2355 25.9776 14.2955 25.2876 14.9555L25.2676 14.9755C24.7376 15.4855 23.9476 15.5655 23.3276 15.2255C23.2937 15.2691 23.2602 15.3122 23.2271 15.3548C22.2045 16.6718 21.5315 17.5384 20.4176 18.2455C20.3916 18.2617 20.3653 18.2781 20.3388 18.2946C19.8253 18.6157 19.2178 18.9955 18.4476 18.9955C18.1076 18.9955 16.2276 19.0155 16.2276 19.0155C16.0176 19.0155 15.8476 18.8455 15.8476 18.6355C15.8476 18.5655 15.8676 18.4955 15.9076 18.4355H15.8976C15.6876 18.4355 15.5176 18.2655 15.5176 18.0555C15.5176 17.8955 15.6176 17.7655 15.7576 17.7055C15.6176 17.6555 15.5176 17.5155 15.5176 17.3555C15.5176 17.1455 15.6876 16.9755 15.8976 16.9755H16.7776L16.5976 16.7955C16.4976 16.6955 16.3576 16.6355 16.2076 16.6355H15.9076C15.6976 16.6355 15.5276 16.4655 15.5276 16.2555C15.5276 16.0455 15.6976 15.8755 15.9076 15.8755H16.2076C16.5476 15.8755 16.8676 16.0055 17.1176 16.2355C17.1376 16.0955 17.2476 15.9655 17.3976 15.9255C17.5976 15.8755 17.8076 15.9955 17.8576 16.1955L17.9976 16.7055C17.9976 16.7055 19.8576 17.0155 21.8176 13.4755C21.7976 13.4155 21.7776 13.3455 21.7676 13.2755C21.6476 12.6055 21.9176 11.9655 22.4676 11.5755C22.6576 11.4455 22.8676 11.3555 23.0976 11.3155C23.6476 11.2155 24.1876 11.3855 24.5776 11.7755Z" fill="#FFC83D"/>
</svg>

<svg xmlns="http://www.w3.org/2000/svg" width="32" height="32" fill="none"><path fill="#FCB100" d="m10.127 12.525-1.55-1.55 1.88-1.89 1.56 1.56-1.89 1.88Zm11.63 0 1.55-1.55-1.88-1.89-1.56 1.56 1.89 1.88Z"/><path fill="#FFC83D" d="M12.598 5.156h-1.23c-1.04 0-1.89.85-1.89 1.89l.41 1.42.37 1.36c.39 1 1.74 1.43 2.59 1.43 1.39 0 1.61-.83 1.64-2 0-.05.03-.09.08-.1.21-.05.43-.22.43-.43 0-.114-.082-.217-.184-.345a2.304 2.304 0 0 1-.216-.305.956.956 0 0 1-.11-.44v-.59c0-1.04-.85-1.89-1.89-1.89Zm6.69 0h1.23c1.04 0 1.89.85 1.89 1.89l-.41 1.42-.37 1.36c-.39 1-1.74 1.43-2.59 1.43-1.39 0-1.61-.83-1.64-2 0-.05-.03-.09-.08-.1-.21-.05-.43-.22-.43-.43 0-.114.081-.217.183-.345.07-.086.148-.184.216-.305.07-.13.11-.29.11-.44v-.59c0-1.04.85-1.89 1.89-1.89Z"/><path fill="#F1A11E" d="M22.797 8.696c-.1.08-.11.25 0 .33.34.27.16.77-.27.92-.35.12-1.16.01-1.16-.83v-.6a.763.763 0 0 0-.52-1.18c-.07-.03-.12-.01-.12-.01s.02-.8-1.58-.8c-1.36 0-2.07-.32-2.07-1.35 0-.8.6-1.23 1.32-1.17.438.037.685.123.888.195.288.101.488.171 1.022.025 1.26-.35 2.81.24 3.1 2.24.19 1.32-.25 1.95-.61 2.23Zm-13.71 0c.1.08.11.25 0 .33-.34.27-.16.77.27.93.35.12 1.16.01 1.16-.83v-.6a.78.78 0 0 1-.13-.43c0-.39.28-.7.65-.76.07-.02.12-.01.12-.01s-.02-.8 1.58-.8c1.36 0 2.07-.32 2.07-1.35 0-.8-.6-1.23-1.32-1.17-.438.037-.684.123-.887.195-.289.101-.489.171-1.023.025-1.26-.35-2.81.24-3.1 2.24-.19 1.32.25 1.95.61 2.23Z"/><path fill="#321B41" d="M12.18 4.371a.222.222 0 0 0-.425-.132l-.7 2.25a4.9 4.9 0 0 0 1.31 5.018.222.222 0 1 0 .305-.323 4.456 4.456 0 0 1-1.19-4.563l.7-2.25Zm7.94-.132a.222.222 0 0 0-.425.133l.71 2.26a4.456 4.456 0 0 1-1.19 4.562.222.222 0 1 0 .305.323 4.9 4.9 0 0 0 1.31-5.018l-.71-2.26Z"/><path fill="#321B41" d="M12.137 8.086a1.3 1.3 0 1 1-2.6 0 1.3 1.3 0 0 1 2.6 0Zm10.21 0a1.3 1.3 0 1 1-2.6 0 1.3 1.3 0 0 1 2.6 0Z"/><path fill="#fff" d="M14.137 7.956c0 .09-.06.16-.13.16h-.9c-.07 0-.13-.07-.13-.16v-.01c0-.34.3-.54.58-.54.28 0 .58.19.58.54v.01ZM17.748 7.956c0 .09.06.16.13.16h.9c.07 0 .13-.07.13-.16v-.01c0-.34-.3-.54-.58-.54-.28 0-.58.19-.58.54v.01Z"/><path fill="#7D4533" d="M14.137 7.956c0 .06 0 .11-.02.16h-.68c-.01-.05-.02-.1-.02-.16 0-.26.16-.46.36-.46.2 0 .36.21.36.46Zm3.61 0c0 .06 0 .11.02.16h.68c.01-.05.02-.1.02-.16 0-.26-.16-.46-.36-.46-.2 0-.36.21-.36.46Z"/><path fill="#000" d="M14.047 7.956c0 .06-.02.12-.05.16h-.3a.277.277 0 0 1-.05-.16c0-.14.09-.26.2-.26.11 0 .2.12.2.26Zm3.79 0c0 .06.02.12.05.16h.3c.03-.04.05-.1.05-.16 0-.14-.09-.26-.2-.26-.11 0-.2.12-.2.26Z"/><path fill="#fff" d="M14.037 7.776c0 .05-.03.09-.07.09-.038 0-.07-.04-.07-.09 0-.05.032-.09.07-.09.04 0 .07.04.07.09Zm3.95 0c0 .05-.03.09-.07.09-.038 0-.07-.04-.07-.09 0-.05.032-.09.07-.09.04 0 .07.04.07.09Z"/><path fill="#FCB100" d="M27.127 16.276a1.089 1.089 0 0 0 1.41-.73l.91-2.76c.19-.59.09-1.24-.27-1.74s-.95-.8-1.57-.8h-4.16c-.62 0-1.12.5-1.12 1.13 0 .63.5 1.13 1.12 1.13h3.73l-.77 2.35c-.19.59.13 1.23.72 1.42Zm-8.81-3.53-.68.11a.418.418 0 0 1-.131-.002l.142-.178h.52a.38.38 0 0 0 .078-.752.388.388 0 0 0 .241-.338.376.376 0 0 0-.38-.39h-.63c-.26 0-.5.11-.67.31l-.51.73a.923.923 0 0 0-.028.038c-.191.263-1.17 1.612-3.192 1.612-1.598 0-2.374-1.575-2.487-1.805-.006-.013-.01-.022-.013-.025v.01l-2.04.91c.05.12 1.34 2.95 4.4 3.16.12.01.24.01.35.01 1.75 0 3.41-.88 4.49-2.24l.25-.26c.05-.06.12-.1.2-.11l.2-.03c.19-.03.34-.2.33-.39 0-.24-.21-.41-.44-.37Z"/><path fill="#FFC83D" d="M6.198 21.016h-2.81l.46 1.39c.05.14.05.28 0 .42l-1.36 4.39h2.03l1.86-3.55c.22-.68.22-1.42 0-2.1l-.18-.55ZM25.797 21.016h2.81l-.46 1.39c-.05.14-.05.28 0 .42l1.36 4.39h-2.03l-1.86-3.55c-.22-.68-.22-1.42 0-2.1l.18-.55Z"/><path fill="#FCB100" d="m9.108 18.976 1.62 1.59c.72.7 1.13 1.69 1.13 2.69v2.72h-2.11l-.33-2.72c-.06-.31-.16-.58-.37-.79l-1.79-1.68 1.85-1.81ZM22.888 18.976l-1.62 1.59c-.72.7-1.13 1.69-1.13 2.69v2.72h2.11l.33-2.72c.06-.31.16-.58.37-.79l1.79-1.68-1.85-1.81Z"/><path fill="#D37034" d="M13.058 6.9a.135.135 0 1 0 0 .27h.82a.135.135 0 0 0 0-.27h-.82ZM18.008 6.9a.135.135 0 0 0 0 .27h.82a.135.135 0 1 0-.001-.27h-.82Z"/><path fill="#D3D3D3" d="m2.557 26.946.3-.96h2.3l-.5.96h-2.1Zm7.24.04-.05-1h2.12v1h-2.07Zm12.45-1-.05 1h-2.07v-1h2.12Zm7.19.96-.3-.96h-2.3l.5.96h2.1Z"/><path fill="#990839" d="M13.247 9.26a.126.126 0 0 0 0 .252h.72a.126.126 0 1 0 0-.253h-.72Zm4.67 0a.126.126 0 1 0 0 .252h.71a.126.126 0 0 0 0-.253h-.71Z"/><path fill="#F95725" d="M4.247 16.086a1.34 1.34 0 0 1 1.89-.02L9.32 19.18 7.5 21l-3.232-3.035c-.53-.51-.54-1.36-.02-1.88ZM24.5 20.999l3.228-3.033c.53-.51.54-1.36.02-1.88a1.34 1.34 0 0 0-1.89-.02l-3.18 3.11L24.499 21Z"/><path fill="#533566" d="M4.657 26.946h-2.1l-.54 1.64c-.07.19.08.39.28.39h3.98c.24 0 .43-.19.43-.43 0-.14-.07-.28-.19-.36l-1.86-1.24Zm24.78 0h-2.1l-1.86 1.24c-.12.08-.19.22-.19.36 0 .24.19.43.43.43h3.98c.2 0 .35-.2.28-.39l-.54-1.64Zm-17.57.04 2.03 1.08c.16.08.26.25.25.43 0 .27-.22.49-.49.49h-3.36c-.24 0-.43-.19-.43-.43l-.07-1.57h2.07Zm8.26 0-2.03 1.08c-.16.08-.26.25-.25.43 0 .27.22.49.49.49h3.36c.24 0 .43-.19.43-.43l.07-1.57h-2.07Z"/><path fill="#FF6723" d="M2.377 17.946c-.49-1.36-.14-2.48.78-3.33l3.55-3.55a2.668 2.668 0 0 1 3.77 0 2.668 2.668 0 0 1 0 3.77l-2.98 3.11c-.57.59-1.34.83-2.07.73l.85 2.574H3.469l-1.092-3.304Zm26.149 3.304 1.091-3.304c.49-1.36.14-2.48-.78-3.33l-3.55-3.55a2.668 2.668 0 0 0-3.77 0 2.668 2.668 0 0 0 0 3.77l2.98 3.11c.57.59 1.34.83 2.07.73l-.849 2.574h2.808Z"/><path fill="#FFC83D" d="m14.877 19.136.57.32c.18.1.26.32.16.51-.04.09-.11.15-.19.18.06.11.06.24 0 .36-.07.12-.2.19-.33.19-.04 0-.07 0-.1-.01-.01.04-.02.08-.04.12-.07.12-.2.19-.33.19-.05 0-.11-.01-.16-.04 0 .04-.02.08-.04.12-.07.12-.2.19-.33.19-.06 0-.12-.02-.18-.05l-.45-.25-.06-.03-.81-.43a.914.914 0 0 1-.14-.07l-.05-.03c-2.56-1.41-3.88-3.52-4.55-5.08-.42-.01-.83-.18-1.14-.51l-.03-.03c-.62-.65-.61-1.67.03-2.31l.68-.68c.32-.32.76-.51 1.22-.51.52 0 .99.24 1.32.66.17.23.28.5.33.78.06.52-.11 1.01-.46 1.38.11.3.26.64.45 1 .8 1.5 2.15 2.78 3.61 3.55h.03l.83-.25c.2-.06.41.06.46.27.05.19-.08.39-.28.45l-.02.01ZM24.578 11.775l.78.8c.64.66.62 1.72-.07 2.38l-.02.02c-.53.51-1.32.59-1.94.25l-.1.13c-1.024 1.317-1.697 2.183-2.81 2.89l-.08.05c-.513.32-1.12.7-1.89.7-.34 0-2.22.02-2.22.02a.38.38 0 0 1-.38-.38c0-.07.02-.14.06-.2h-.01a.38.38 0 0 1-.38-.38c0-.16.1-.29.24-.35a.371.371 0 0 1-.24-.35c0-.21.17-.38.38-.38h.88l-.18-.18c-.1-.1-.24-.16-.39-.16h-.3a.38.38 0 1 1 0-.76h.3c.34 0 .66.13.91.36.02-.14.13-.27.28-.31.2-.05.41.07.46.27l.14.51s1.86.31 3.82-3.23a1.688 1.688 0 0 1 .65-1.9c.19-.13.4-.22.63-.26.55-.1 1.09.07 1.48.46Z"/></svg>
